openmetadata-ui/src/main/resources/ui/src/assets/svg/ic-sync.svg

<svg width="16" height="16" viewBox="0 0 16 16" fill="none" xmlns="http://www.w3.org/2000/svg">
<path d="M15.4 6.73421C15.2669 6.60109 15.0508 6.60109 14.9178 6.73421L14.1126 7.53943C13.9172 4.89374 12.0421 2.67389 9.46638 2.03876C6.89075 1.4035 4.19861 2.49719 2.79547 4.74863C2.72966 4.85191 2.72429 4.98265 2.78148 5.09105C2.83868 5.19944 2.94957 5.26888 3.07208 5.27275C3.19458 5.27675 3.30985 5.21456 3.37379 5.11003C4.61171 3.12408 6.97917 2.14965 9.25633 2.68888C11.5336 3.2281 13.2127 5.16048 13.4288 7.49073L12.6719 6.73421C12.5382 6.60508 12.3255 6.60683 12.1939 6.73845C12.0624 6.86995 12.0605 7.08262 12.1897 7.21649L13.5538 8.58042C13.6869 8.71367 13.9028 8.71367 14.036 8.58042L15.4 7.21649C15.5332 7.08337 15.5332 6.86733 15.4 6.73421Z" fill="#37352F" stroke="#37352F" stroke-width="0.35"/>
<path d="M13.0924 10.7783C12.9327 10.6788 12.7224 10.7272 12.6223 10.8866C11.3843 12.8728 9.01687 13.8472 6.73945 13.308C4.46216 12.7688 2.78304 10.8363 2.56712 8.50588L3.32376 9.26252C3.45751 9.39165 3.67018 9.3899 3.8018 9.25828C3.9333 9.12678 3.93517 8.91411 3.80592 8.78024L2.44187 7.41631C2.30874 7.28306 2.09283 7.28306 1.95971 7.41631L0.595779 8.78024C0.466529 8.91411 0.468277 9.12678 0.5999 9.25828C0.731398 9.3899 0.944067 9.39165 1.07794 9.26252L1.88303 8.4573C2.07859 11.103 3.95353 13.3228 6.52928 13.958C9.10504 14.5932 11.7971 13.4997 13.2002 11.2481C13.2998 11.0886 13.2516 10.8785 13.0924 10.7783Z" fill="#37352F" stroke="#37352F" stroke-width="0.35"/>
</svg>

<svg xmlns="http://www.w3.org/2000/svg" width="16" height="16" fill="none"><path fill="#37352F" stroke="#37352F" stroke-width=".35" d="M15.4 6.734a.341.341 0 0 0-.482 0l-.805.805A6.13 6.13 0 0 0 2.795 4.75a.341.341 0 1 0 .579.361 5.452 5.452 0 0 1 10.055 2.38l-.757-.756a.341.341 0 0 0-.482.482l1.364 1.364a.34.34 0 0 0 .482 0L15.4 7.216a.341.341 0 0 0 0-.482ZM13.092 10.778a.342.342 0 0 0-.47.109A5.452 5.452 0 0 1 2.567 8.506l.757.757a.341.341 0 0 0 .482-.483L2.442 7.416a.34.34 0 0 0-.482 0L.596 8.78a.34.34 0 0 0 .482.483l.805-.806A6.13 6.13 0 0 0 13.2 11.248c.1-.16.052-.37-.108-.47Z"/></svg>
